public/images/home-link.svg

<svg width="89" height="89" viewBox="0 0 89 89" fill="none" xmlns="http://www.w3.org/2000/svg">
<g id="home-link">
<path id="Vector" d="M74.52 21.6118H14.48C12.2101 21.6118 10.37 23.4519 10.37 25.7218V33.9118C10.37 36.1817 12.2101 38.0218 14.48 38.0218H74.52C76.7899 38.0218 78.63 36.1817 78.63 33.9118V25.7218C78.63 23.4519 76.7899 21.6118 74.52 21.6118Z" fill="#AFE0DD"/>
<path id="Vector_2" d="M74.52 39.0218H14.48C11.66 39.0218 9.37 36.7318 9.37 33.9118V25.7218C9.37 22.9018 11.66 20.6118 14.48 20.6118H74.51C77.33 20.6118 79.62 22.9018 79.62 25.7218V33.9118C79.62 36.7318 77.33 39.0218 74.51 39.0218H74.52ZM14.48 22.6118C12.76 22.6118 11.37 24.0118 11.37 25.7218V33.9118C11.37 35.6318 12.77 37.0218 14.48 37.0218H74.51C76.23 37.0218 77.62 35.6218 77.62 33.9118V25.7218C77.62 24.0018 76.22 22.6118 74.51 22.6118H14.48Z" fill="#13706D"/>
<path id="Vector_3" d="M59.2 54.9818C58.71 54.9818 58.25 55.1118 57.85 55.3418C57.37 54.5818 56.51 54.0718 55.55 54.0718C54.85 54.0718 54.21 54.3418 53.72 54.7718C53.24 54.3318 52.6 54.0718 51.89 54.0718C51.57 54.0718 51.25 54.1318 50.96 54.2318V48.5818C50.96 47.0818 49.74 45.8518 48.23 45.8518C46.72 45.8518 45.5 47.0718 45.5 48.5818V60.4018L43.99 59.2018C43.5 58.8018 42.9 58.5918 42.26 58.5918C42.16 58.5918 42.06 58.5918 41.97 58.6118C41.22 58.6918 40.56 59.0618 40.1 59.6318C40.05 59.6918 40 59.7618 39.95 59.8418C39.34 60.7718 39.34 61.9718 39.96 62.9018L44.4 69.5618C45.93 71.8518 48.48 73.2118 51.23 73.2118H54.78C56.69 73.2118 58.48 72.4718 59.82 71.1218C61.17 69.7718 61.91 67.9818 61.91 66.0718V57.6918C61.91 56.1918 60.69 54.9618 59.18 54.9618L59.2 54.9818Z" fill="#AFE0DD"/>
<path id="Vector_4" d="M45.08 64.5118C42.04 64.5118 39.22 63.0018 37.54 60.4818L32.64 53.1318C31.95 52.0918 31.95 50.7618 32.64 49.7218C32.69 49.6418 32.74 49.5718 32.8 49.5018C33.39 48.7718 34.26 48.3518 35.2 48.3518C35.89 48.3518 36.57 48.5918 37.12 49.0218L38.76 50.3318V37.3218C38.76 35.6518 40.11 34.3018 41.78 34.3018C43.45 34.3018 44.8 35.6518 44.8 37.3218V43.5318C45.12 43.4218 45.46 43.3618 45.81 43.3618C46.56 43.3618 47.27 43.6418 47.82 44.1318C48.37 43.6418 49.09 43.3618 49.83 43.3618C50.87 43.3618 51.83 43.9018 52.38 44.7618C52.83 44.5118 53.34 44.3718 53.86 44.3718C55.53 44.3718 56.88 45.7218 56.88 47.3918V56.6318C56.88 58.7418 56.06 60.7118 54.57 62.2018C53.08 63.6918 51.1 64.5118 49 64.5118H45.08ZM35.2 50.3618C35.2 50.3618 35.12 50.3618 35.08 50.3618C34.8 50.3918 34.55 50.5318 34.37 50.7518C34.35 50.7718 34.33 50.8018 34.32 50.8218C34.08 51.1818 34.08 51.6418 34.32 51.9918L39.22 59.3418C40.53 61.3018 42.72 62.4818 45.08 62.4818H49C50.57 62.4818 52.04 61.8718 53.15 60.7618C54.26 59.6518 54.87 58.1818 54.87 56.6118V47.3718C54.87 46.8118 54.42 46.3618 53.86 46.3618C53.3 46.3618 52.85 46.8118 52.85 47.3718V49.3818C52.85 49.9418 52.4 50.3918 51.84 50.3918C51.28 50.3918 50.83 49.9418 50.83 49.3818V46.3618C50.83 45.8018 50.38 45.3518 49.82 45.3518C49.26 45.3518 48.81 45.8018 48.81 46.3618V49.3818C48.81 49.9418 48.36 50.3918 47.8 50.3918C47.24 50.3918 46.79 49.9418 46.79 49.3818V46.3618C46.79 45.8018 46.34 45.3518 45.78 45.3518C45.22 45.3518 44.77 45.8018 44.77 46.3618V49.3818C44.77 49.9418 44.32 50.3918 43.76 50.3918C43.2 50.3918 42.75 49.9418 42.75 49.3818V37.3018C42.75 36.7418 42.3 36.2918 41.74 36.2918C41.18 36.2918 40.73 36.7418 40.73 37.3018V52.4018C40.73 52.7818 40.51 53.1418 40.16 53.3118C40.02 53.3718 39.87 53.4118 39.72 53.4118C39.49 53.4118 39.27 53.3318 39.09 53.1918L35.82 50.5718C35.63 50.4218 35.4 50.3418 35.16 50.3418L35.2 50.3618Z" fill="#13706D"/>
<path id="Vector_5" d="M35.2 50.3618C35.2 50.3618 35.12 50.3618 35.08 50.3618C34.8 50.3918 34.55 50.5318 34.37 50.7518C34.35 50.7718 34.33 50.8018 34.32 50.8218C34.08 51.1818 34.08 51.6418 34.32 51.9918L39.22 59.3418C40.53 61.3018 42.72 62.4818 45.08 62.4818H49C50.57 62.4818 52.04 61.8718 53.15 60.7618C54.26 59.6518 54.87 58.1818 54.87 56.6118V47.3718C54.87 46.8118 54.42 46.3618 53.86 46.3618C53.3 46.3618 52.85 46.8118 52.85 47.3718V49.3818C52.85 49.9418 52.4 50.3918 51.84 50.3918C51.28 50.3918 50.83 49.9418 50.83 49.3818V46.3618C50.83 45.8018 50.38 45.3518 49.82 45.3518C49.26 45.3518 48.81 45.8018 48.81 46.3618V49.3818C48.81 49.9418 48.36 50.3918 47.8 50.3918C47.24 50.3918 46.79 49.9418 46.79 49.3818V46.3618C46.79 45.8018 46.34 45.3518 45.78 45.3518C45.22 45.3518 44.77 45.8018 44.77 46.3618V49.3818C44.77 49.9418 44.32 50.3918 43.76 50.3918C43.2 50.3918 42.75 49.9418 42.75 49.3818V37.3018C42.75 36.7418 42.3 36.2918 41.74 36.2918C41.18 36.2918 40.73 36.7418 40.73 37.3018V52.4018C40.73 52.7818 40.51 53.1418 40.16 53.3118C40.02 53.3718 39.87 53.4118 39.72 53.4118C39.49 53.4118 39.27 53.3318 39.09 53.1918L35.82 50.5718C35.63 50.4218 35.4 50.3418 35.16 50.3418L35.2 50.3618Z" fill="white"/>
<path id="Vector_6" d="M71.33 27.6518H44.69C43.7898 27.6518 43.06 28.3816 43.06 29.2818V29.2918C43.06 30.192 43.7898 30.9218 44.69 30.9218H71.33C72.2302 30.9218 72.96 30.192 72.96 29.2918V29.2818C72.96 28.3816 72.2302 27.6518 71.33 27.6518Z" fill="#D8E9E8"/>
<path id="Vector_7" d="M36.85 27.6518H17.67C16.7698 27.6518 16.04 28.3816 16.04 29.2818V29.2918C16.04 30.192 16.7698 30.9218 17.67 30.9218H36.85C37.7502 30.9218 38.48 30.192 38.48 29.2918V29.2818C38.48 28.3816 37.7502 27.6518 36.85 27.6518Z" fill="#D8E9E8"/>
</g>
</svg>

<svg xmlns="http://www.w3.org/2000/svg" width="89" height="89" fill="none"><path fill="#AFE0DD" d="M74.52 21.612H14.48a4.11 4.11 0 0 0-4.11 4.11v8.19a4.11 4.11 0 0 0 4.11 4.11h60.04a4.11 4.11 0 0 0 4.11-4.11v-8.19a4.11 4.11 0 0 0-4.11-4.11"/><path fill="#13706D" d="M74.52 39.022H14.48c-2.82 0-5.11-2.29-5.11-5.11v-8.19c0-2.82 2.29-5.11 5.11-5.11h60.03c2.82 0 5.11 2.29 5.11 5.11v8.19c0 2.82-2.29 5.11-5.11 5.11zm-60.04-16.41c-1.72 0-3.11 1.4-3.11 3.11v8.19c0 1.72 1.4 3.11 3.11 3.11h60.03c1.72 0 3.11-1.4 3.11-3.11v-8.19c0-1.72-1.4-3.11-3.11-3.11z"/><path fill="#AFE0DD" d="M59.2 54.982c-.49 0-.95.13-1.35.36a2.73 2.73 0 0 0-2.3-1.27c-.7 0-1.34.27-1.83.7-.48-.44-1.12-.7-1.83-.7-.32 0-.64.06-.93.16v-5.65c0-1.5-1.22-2.73-2.73-2.73s-2.73 1.22-2.73 2.73v11.82l-1.51-1.2c-.49-.4-1.09-.61-1.73-.61-.1 0-.2 0-.29.02a2.76 2.76 0 0 0-2.02 1.23c-.61.93-.61 2.13.01 3.06l4.44 6.66a8.19 8.19 0 0 0 6.83 3.65h3.55c1.91 0 3.7-.74 5.04-2.09a7.1 7.1 0 0 0 2.09-5.05v-8.38c0-1.5-1.22-2.73-2.73-2.73z"/><path fill="#13706D" d="M45.08 64.512c-3.04 0-5.86-1.51-7.54-4.03l-4.9-7.35a3.07 3.07 0 0 1 0-3.41 3.07 3.07 0 0 1 2.56-1.37c.69 0 1.37.24 1.92.67l1.64 1.31v-13.01c0-1.67 1.35-3.02 3.02-3.02s3.02 1.35 3.02 3.02v6.21c.32-.11.66-.17 1.01-.17.75 0 1.46.28 2.01.77.55-.49 1.27-.77 2.01-.77 1.04 0 2 .54 2.55 1.4a3.017 3.017 0 0 1 4.5 2.63v9.24c0 2.11-.82 4.08-2.31 5.57a7.83 7.83 0 0 1-5.57 2.31zm-9.88-14.15h-.12a1.06 1.06 0 0 0-.76.46c-.24.36-.24.82 0 1.17l4.9 7.35a7.04 7.04 0 0 0 5.86 3.14H49c1.57 0 3.04-.61 4.15-1.72a5.82 5.82 0 0 0 1.72-4.15v-9.24c0-.56-.45-1.01-1.01-1.01s-1.01.45-1.01 1.01v2.01c0 .56-.45 1.01-1.01 1.01s-1.01-.45-1.01-1.01v-3.02c0-.56-.45-1.01-1.01-1.01s-1.01.45-1.01 1.01v3.02c0 .56-.45 1.01-1.01 1.01s-1.01-.45-1.01-1.01v-3.02c0-.56-.45-1.01-1.01-1.01s-1.01.45-1.01 1.01v3.02c0 .56-.45 1.01-1.01 1.01s-1.01-.45-1.01-1.01v-12.08c0-.56-.45-1.01-1.01-1.01s-1.01.45-1.01 1.01v15.1c0 .38-.22.74-.57.91-.14.06-.29.1-.44.1-.23 0-.45-.08-.63-.22l-3.27-2.62a1.06 1.06 0 0 0-.66-.23z"/><path fill="#fff" d="M35.2 50.362h-.12a1.06 1.06 0 0 0-.76.46c-.24.36-.24.82 0 1.17l4.9 7.35a7.04 7.04 0 0 0 5.86 3.14H49c1.57 0 3.04-.61 4.15-1.72a5.82 5.82 0 0 0 1.72-4.15v-9.24c0-.56-.45-1.01-1.01-1.01s-1.01.45-1.01 1.01v2.01c0 .56-.45 1.01-1.01 1.01s-1.01-.45-1.01-1.01v-3.02c0-.56-.45-1.01-1.01-1.01s-1.01.45-1.01 1.01v3.02c0 .56-.45 1.01-1.01 1.01s-1.01-.45-1.01-1.01v-3.02c0-.56-.45-1.01-1.01-1.01s-1.01.45-1.01 1.01v3.02c0 .56-.45 1.01-1.01 1.01s-1.01-.45-1.01-1.01v-12.08c0-.56-.45-1.01-1.01-1.01s-1.01.45-1.01 1.01v15.1c0 .38-.22.74-.57.91-.14.06-.29.1-.44.1-.23 0-.45-.08-.63-.22l-3.27-2.62a1.06 1.06 0 0 0-.66-.23z"/><path fill="#D8E9E8" d="M71.33 27.652H44.69c-.9 0-1.63.73-1.63 1.63v.01c0 .9.73 1.63 1.63 1.63h26.64c.9 0 1.63-.73 1.63-1.63v-.01c0-.9-.73-1.63-1.63-1.63m-34.48 0H17.67c-.9 0-1.63.73-1.63 1.63v.01c0 .9.73 1.63 1.63 1.63h19.18c.9 0 1.63-.73 1.63-1.63v-.01c0-.9-.73-1.63-1.63-1.63"/></svg>
